X:76
T: WENN WIR DURCH DIE STRASSEN ZIEHEN
N: B0563
O: Europa, Mitteleuropa, Deutschland
R: Studenten -, Wander -, Liebes - Lied
M: 4/4
L: 1/8
K: Eb
G2G2 | B3GGFEF | G2E2
G3G | F2B2d3c | B4
G2G2 | B3GGFEF | G2E2
G3G | F2B2d3c | B4
B2B2 | cBcBcBcB | Bee2
eBAG | F3FB2A2 | G4
B2B2 | cBcBcBcB | Bee2
eBAG | F2c2B3D | E4

